;FLAVOR:Marlin
;TIME:18248
;Filament used: 10.3124m
;Layer height: 0.1
;MINX:56.8
;MINY:62.18
;MINZ:0.3
;MAXX:163.2
;MAXY:177.224
;MAXZ:25
;Generated with Cura_SteamEngine 4.4.1
M140 S60
M105
M190 S60
M104 S190
M105
M109 S190
M82 ;absolute extrusion mode
G21 ;metric values
G90 ;absolute positioning
M82 ;set extruder to absolute mode
M107 ;start with the fan off
G28 X0 Y0 ;move X/Y to min endstops
G28 Z0 ;move Z to min endstops
M84 ;steppers off
M0 S12 ;wait 12 seconds
M17 ;turn steppers on
G1 Z10.0 F300 ;move the platform down 10mm
G92 E0 ;zero the extruded length
G1 F200 E8 ;extrude 8mm of feed stock
G92 E0 ;zero the extruded length again
M0 S5 ;wait 5 seconds
G1 F9000
M117 Printing...
G92 E0
G92 E0
;LAYER_COUNT:248
;LAYER:0
M107
G0 F3600 X59.32 Y64.482 Z0.3
;TYPE:SKIRT
G1 F1800 X59.481 Y64.336 E0.01084
G1 X59.586 Y64.245 E0.01778
G1 X60.024 Y63.881 E0.04619
G1 X60.311 Y63.668 E0.06402
G1 X60.524 Y63.528 E0.07674
G1 X60.651 Y63.449 E0.0842
G1 X61.095 Y63.186 E0.10994
G1 X61.394 Y63.029 E0.12679
G1 X61.63 Y62.921 E0.13974
G1 X61.777 Y62.859 E0.1477
G1 X62.256 Y62.668 E0.17343
G1 X62.598 Y62.553 E0.19143
G1 X62.858 Y62.482 E0.20487
G1 X62.988 Y62.45 E0.21155
G1 X63.504 Y62.332 E0.23796
G1 X63.871 Y62.27 E0.25653
G1 X64.119 Y62.243 E0.26898
G1 X64.263 Y62.23 E0.27619
G1 X64.8 Y62.196 E0.30303
G1 X64.941 Y62.191 E0.31007
G1 X65.466 Y62.181 E0.33627
G1 X65.527 Y62.18 E0.33931
G1 X154.338 Y62.18 E4.77011
G1 X155.044 Y62.19 E4.80534
G1 X155.164 Y62.194 E4.81133
G1 X155.455 Y62.209 E4.82587
G1 X155.589 Y62.219 E4.83257
G1 X156.069 Y62.264 E4.85662
G1 X156.403 Y62.313 E4.87346
G1 X156.636 Y62.36 E4.88532
G1 X156.798 Y62.397 E4.89361
G1 X157.336 Y62.535 E4.92132
G1 X157.673 Y62.642 E4.93896
G1 X157.932 Y62.74 E4.95278
G1 X158.072 Y62.797 E4.96032
G1 X158.536 Y62.998 E4.98555
G1 X158.837 Y63.147 E5.0023
G1 X159.046 Y63.265 E5.01428
G1 X159.181 Y63.346 E5.02213
G1 X159.642 Y63.637 E5.04933
G1 X159.946 Y63.855 E5.06799
G1 X160.134 Y64.007 E5.08006
G1 X160.235 Y64.092 E5.08664
G1 X160.641 Y64.449 E5.11361
G1 X160.885 Y64.688 E5.13065
G1 X161.031 Y64.847 E5.14142
G1 X161.135 Y64.966 E5.14931
G1 X161.499 Y65.404 E5.17772
G1 X161.712 Y65.691 E5.19555
G1 X161.852 Y65.904 E5.20827
G1 X161.932 Y66.032 E5.2158
G1 X162.193 Y66.473 E5.24137
G1 X162.348 Y66.771 E5.25812
G1 X162.457 Y67.009 E5.27118
G1 X162.521 Y67.158 E5.27927
G1 X162.712 Y67.638 E5.30505
G1 X162.823 Y67.967 E5.32237
G1 X162.895 Y68.227 E5.33583
G1 X162.931 Y68.372 E5.34328
G1 X163.048 Y68.887 E5.36963
G1 X163.109 Y69.252 E5.38809
G1 X163.138 Y69.52 E5.40154
G1 X163.15 Y69.659 E5.4085
G1 X163.184 Y70.188 E5.43495
G1 X163.191 Y70.341 E5.44259
G1 X163.2 Y70.896 E5.47028
G1 X163.2 Y109.718 E7.40712
G1 X163.19 Y110.424 E7.44235
G1 X163.184 Y110.579 E7.45009
G1 X163.146 Y111.186 E7.48043
G1 X163.142 Y111.239 E7.48308
G1 X162.976 Y113.329 E7.58768
G1 X162.835 Y116.084 E7.72531
G1 X162.771 Y118.802 E7.86095
G1 X162.786 Y121.557 E7.9984
G1 X162.875 Y124.249 E8.13277
G1 X163.181 Y128.803 E8.36049
G1 X163.186 Y128.913 E8.36598
G1 X163.193 Y129.126 E8.37661
G1 X163.195 Y129.195 E8.38006
G1 X163.198 Y129.463 E8.39343
G1 X163.198 Y129.499 E8.39522
G1 X163.2 Y168.074 E10.31974
G1 X163.2 Y168.121 E10.32208
G1 X163.191 Y168.729 E10.35242
G1 X163.188 Y168.82 E10.35696
G1 X163.158 Y169.513 E10.39157
G1 X163.152 Y169.616 E10.39671
G1 X163.122 Y170.013 E10.41658
G1 X163.054 Y170.469 E10.43958
G1 X162.938 Y170.989 E10.46616
G1 X162.918 Y171.074 E10.47052
G1 X162.853 Y171.332 E10.48379
G1 X162.746 Y171.675 E10.50172
G1 X162.645 Y171.944 E10.51605
G1 X162.586 Y172.089 E10.52386
G1 X162.384 Y172.556 E10.54925
G1 X162.234 Y172.858 E10.56607
G1 X162.115 Y173.069 E10.57815
G1 X162.031 Y173.21 E10.58634
G1 X161.74 Y173.669 E10.61346
G1 X161.535 Y173.957 E10.63109
G1 X161.378 Y174.153 E10.64362
G1 X161.283 Y174.265 E10.65095
G1 X160.948 Y174.646 E10.67626
G1 X160.718 Y174.882 E10.6927
G1 X160.517 Y175.068 E10.70636
G1 X160.391 Y175.178 E10.71471
G1 X159.991 Y175.511 E10.74067
G1 X159.722 Y175.713 E10.75746
G1 X159.505 Y175.858 E10.77048
G1 X159.355 Y175.952 E10.77931
G1 X158.905 Y176.218 E10.80539
G1 X158.612 Y176.371 E10.82188
G1 X158.381 Y176.477 E10.83456
G1 X158.231 Y176.541 E10.8427
G1 X157.747 Y176.734 E10.86869
G1 X157.418 Y176.845 E10.88602
G1 X157.155 Y176.918 E10.89963
G1 X157.007 Y176.956 E10.90726
G1 X156.491 Y177.073 E10.93365
G1 X156.128 Y177.133 E10.95201
G1 X155.87 Y177.161 E10.96496
G1 X155.725 Y177.174 E10.97222
G1 X155.213 Y177.206 E10.99781
G1 X155.074 Y177.211 E11.00475
G1 X154.549 Y177.221 E11.03095
G1 X154.488 Y177.222 E11.03399
G1 X69.515 Y177.224 E15.27331
G1 X66.039 Y177.224 E15.44673
G1 X65.24 Y177.213 E15.4866
G1 X65.154 Y177.21 E15.49089
G1 X64.736 Y177.193 E15.51176
G1 X64.649 Y177.189 E15.51611
G1 X64.075 Y177.15 E15.54481
G1 X63.608 Y177.083 E15.56835
G1 X62.913 Y176.931 E15.60384
G1 X62.571 Y176.836 E15.62155
G1 X62.175 Y176.702 E15.64241
G1 X61.931 Y176.608 E15.65545
G1 X61.466 Y176.407 E15.68072
G1 X61.163 Y176.257 E15.69759
G1 X60.954 Y176.139 E15.70957
G1 X60.813 Y176.054 E15.71778
G1 X60.351 Y175.761 E15.74507
G1 X60.073 Y175.563 E15.7621
G1 X59.897 Y175.423 E15.77332
G1 X59.773 Y175.319 E15.7814
G1 X59.351 Y174.947 E15.80946
G1 X59.094 Y174.694 E15.82745
G1 X58.933 Y174.516 E15.83943
G1 X58.846 Y174.415 E15.84608
G1 X58.505 Y174.005 E15.87268
G1 X58.29 Y173.715 E15.89069
G1 X58.141 Y173.488 E15.90424
G1 X58.064 Y173.365 E15.91148
G1 X57.803 Y172.925 E15.937
G1 X57.637 Y172.606 E15.95495
G1 X57.533 Y172.375 E15.96758
G1 X57.477 Y172.243 E15.97474
G1 X57.287 Y171.765 E16.0004
G1 X57.179 Y171.445 E16.01725
G1 X57.106 Y171.184 E16.03077
G1 X57.067 Y171.028 E16.03879
G1 X56.95 Y170.511 E16.06524
G1 X56.889 Y170.139 E16.08405
G1 X56.862 Y169.882 E16.09694
G1 X56.85 Y169.747 E16.1037
G1 X56.817 Y169.217 E16.13019
G1 X56.812 Y169.075 E16.13728
G1 X56.803 Y168.569 E16.16253
G1 X56.802 Y168.512 E16.16537
G1 X56.8 Y129.974 E18.08804
G1 X56.8 Y129.931 E18.09019
G1 X56.808 Y129.339 E18.11973
G1 X56.811 Y129.237 E18.12482
G1 X56.843 Y128.531 E18.16008
G1 X56.849 Y128.438 E18.16472
G1 X56.961 Y126.938 E18.23977
G1 X57.127 Y124.199 E18.37667
G1 X57.215 Y121.479 E18.51244
G1 X57.226 Y118.727 E18.64974
G1 X57.159 Y116.007 E18.78548
G1 X57.015 Y113.256 E18.92292
G1 X56.866 Y111.322 E19.01969
G1 X56.864 Y111.292 E19.02119
G1 X56.816 Y110.583 E19.05664
G1 X56.809 Y110.419 E19.06483
G1 X56.8 Y109.864 E19.09253
G1 X56.8 Y71.042 E21.02936
G1 X56.81 Y70.336 E21.06459
G1 X56.815 Y70.199 E21.07143
G1 X56.832 Y69.9 E21.08637
G1 X56.841 Y69.78 E21.09237
G1 X56.887 Y69.294 E21.11673
G1 X56.939 Y68.949 E21.13414
G1 X56.99 Y68.702 E21.14672
G1 X57.024 Y68.557 E21.15415
G1 X57.152 Y68.056 E21.17995
G1 X57.259 Y67.716 E21.19773
G1 X57.36 Y67.449 E21.21197
G1 X57.415 Y67.312 E21.21934
G1 X57.615 Y66.849 E21.2445
G1 X57.771 Y66.537 E21.2619
G1 X57.892 Y66.324 E21.27412
G1 X57.967 Y66.198 E21.28144
G1 X58.257 Y65.738 E21.30857
G1 X58.474 Y65.435 E21.32716
G1 X58.625 Y65.248 E21.33915
G1 X58.706 Y65.152 E21.34542
G1 X59.061 Y64.746 E21.37233
G1 X59.32 Y64.482 E21.39078
;MESH:RipcoderGameConsoleTop5mmcorners.3mf
G0 F3600 X60.002 Y67.723
G0 X61.098 Y68.394
G0 X71.83 Y101.042
G0 X71.9 Y100.972
;TYPE:WALL-INNER
G1 F1800 X148.1 Y100.972 E25.19241
G1 X148.1 Y74.772 E26.49953
G1 X71.9 Y74.772 E30.30117
G1 X71.9 Y100.972 E31.60829
G0 F3600 X71.83 Y101.042
G0 X71.872 Y74.744
G0 X156.326 Y66.291
G0 X156.356 Y66.196
G1 F1800 X156.995 Y66.461 E31.6428
G1 X157.588 Y66.824 E31.67749
G1 X158.11 Y67.27 E31.71175
G1 X158.556 Y67.792 E31.746
G1 X158.919 Y68.385 E31.78069
G1 X159.184 Y69.025 E31.81525
G1 X159.343 Y69.69 E31.84936
G1 X159.4 Y70.399 E31.88484
G1 X159.4 Y110.361 E33.87856
G1 X159.343 Y111.07 E33.91404
G1 X159.184 Y111.735 E33.94815
G1 X158.919 Y112.375 E33.98271
G1 X158.556 Y112.968 E34.0174
G1 X158.11 Y113.489 E34.05162
G1 X157.588 Y113.936 E34.0859
G1 X156.995 Y114.299 E34.12059
G1 X156.355 Y114.564 E34.15515
G1 X155.69 Y114.723 E34.18926
G1 X154.978 Y114.78 E34.2249
G1 X65.022 Y114.78 E38.71282
G1 X64.31 Y114.723 E38.74846
G1 X63.645 Y114.564 E38.78257
G1 X63.005 Y114.299 E38.81713
G1 X62.412 Y113.936 E38.85181
G1 X61.89 Y113.489 E38.8861
G1 X61.444 Y112.968 E38.92032
G1 X61.081 Y112.375 E38.955
G1 X60.816 Y111.735 E38.98956
G1 X60.657 Y111.07 E39.02368
G1 X60.6 Y110.361 E39.05916
G1 X60.6 Y70.399 E41.05287
G1 X60.657 Y69.69 E41.08836
G1 X60.816 Y69.025 E41.12247
G1 X61.081 Y68.385 E41.15703
G1 X61.444 Y67.792 E41.19172
G1 X61.89 Y67.27 E41.22597
G1 X62.412 Y66.824 E41.26023
G1 X63.005 Y66.461 E41.29491
G1 X63.644 Y66.196 E41.32943
G1 X64.312 Y66.036 E41.3637
G1 X65.021 Y65.98 E41.39918
G1 X154.979 Y65.98 E45.8872
G1 X155.688 Y66.036 E45.92268
G1 X156.356 Y66.196 E45.95695
G0 F3600 X156.481 Y65.815
;TYPE:WALL-OUTER
G1 F1800 X157.175 Y66.102 E45.99442
G1 X157.824 Y66.5 E46.0324
G1 X158.394 Y66.986 E46.06977
G1 X158.88 Y67.556 E46.10715
G1 X159.278 Y68.205 E46.14513
G1 X159.565 Y68.899 E46.1826
G1 X159.74 Y69.629 E46.22005
G1 X159.8 Y70.38 E46.25763
G1 X159.8 Y110.38 E48.25324
G1 X159.74 Y111.131 E48.29083
G1 X159.565 Y111.861 E48.32828
G1 X159.278 Y112.555 E48.36575
G1 X158.88 Y113.204 E48.40373
G1 X158.394 Y113.773 E48.44106
G1 X157.824 Y114.26 E48.47847
G1 X157.175 Y114.658 E48.51645
G1 X156.481 Y114.945 E48.55392
G1 X155.751 Y115.12 E48.59137
G1 X154.997 Y115.18 E48.6291
G1 X65.003 Y115.18 E53.11892
G1 X64.249 Y115.12 E53.15666
G1 X63.519 Y114.945 E53.19411
G1 X62.825 Y114.658 E53.23158
G1 X62.176 Y114.26 E53.26956
G1 X61.606 Y113.773 E53.30696
G1 X61.12 Y113.204 E53.3443
G1 X60.722 Y112.555 E53.38228
G1 X60.435 Y111.861 E53.41975
G1 X60.26 Y111.131 E53.4572
G1 X60.2 Y110.38 E53.49479
G1 X60.2 Y70.38 E55.49039
G1 X60.26 Y69.629 E55.52798
G1 X60.435 Y68.899 E55.56543
G1 X60.722 Y68.205 E55.6029
G1 X61.12 Y67.556 E55.64088
G1 X61.606 Y66.986 E55.67825
G1 X62.176 Y66.5 E55.71562
G1 X62.825 Y66.102 E55.75361
G1 X63.519 Y65.815 E55.79107
G1 X64.249 Y65.639 E55.82854
G1 X65.003 Y65.58 E55.86627
G1 X154.997 Y65.58 E60.35609
G1 X155.751 Y65.639 E60.39382
G1 X156.481 Y65.815 E60.43129
G0 F3600 X156.665 Y65.891
G0 X156.473 Y66.352
G0 X71.872 Y74.744
G0 X71.8 Y100.572
G0 X72.3 Y100.572
G1 F1800 X147.7 Y100.572 E64.19301
G1 X147.7 Y75.172 E65.46022
G1 X72.3 Y75.172 E69.22194
G1 X72.3 Y100.572 E70.48915
G0 F3600 X72.5 Y100.572
G0 X72.5 Y101.072
G0 X71.51 Y101.362
;TYPE:SKIN
G1 F1800 X148.49 Y101.362 E74.3297
G1 X148.49 Y74.382 E75.67574
G1 X71.51 Y74.382 E79.51628
G1 X71.51 Y101.362 E80.86232
G0 F3600 X60.99 Y110.361
G1 F1800 X60.99 Y70.399 E82.85603
G1 X61.042 Y69.761 E82.88797
G1 X61.189 Y69.147 E82.91947
G1 X61.433 Y68.558 E82.95127
G1 X61.763 Y68.018 E82.98285
G1 X62.166 Y67.546 E83.01381
G1 X62.638 Y67.143 E83.04477
G1 X63.183 Y66.81 E83.07664
G1 X63.767 Y66.567 E83.1082
G1 X64.376 Y66.422 E83.13943
G1 X65.026 Y66.37 E83.17196
G1 X154.974 Y66.37 E87.65948
G1 X155.624 Y66.422 E87.69202
G1 X156.233 Y66.567 E87.72325
G1 X156.817 Y66.81 E87.75481
G1 X157.362 Y67.143 E87.78667
G1 X157.834 Y67.546 E87.81763
G1 X158.237 Y68.018 E87.8486
G1 X158.567 Y68.558 E87.88017
G1 X158.811 Y69.147 E87.91198
G1 X158.958 Y69.761 E87.94348
G1 X159.01 Y70.399 E87.97541
G1 X159.01 Y110.361 E89.96912
G1 X158.958 Y110.999 E90.00106
G1 X158.811 Y111.613 E90.03256
G1 X158.567 Y112.202 E90.06437
G1 X158.24 Y112.738 E90.09569
G1 X157.833 Y113.212 E90.12686
G1 X157.358 Y113.62 E90.1581
G1 X156.822 Y113.947 E90.18942
G1 X156.233 Y114.191 E90.22123
G1 X155.62 Y114.338 E90.25268
G1 X154.972 Y114.39 E90.28511
G1 X65.028 Y114.39 E94.77244
G1 X64.38 Y114.338 E94.80487
G1 X63.767 Y114.191 E94.83632
G1 X63.178 Y113.947 E94.86813
G1 X62.642 Y113.62 E94.89945
G1 X62.167 Y113.212 E94.93069
G1 X61.76 Y112.738 E94.96186
G1 X61.433 Y112.202 E94.99319
G1 X61.189 Y111.613 E95.02499
G1 X61.042 Y110.999 E95.05649
G1 X60.99 Y110.361 E95.08843
G0 F3600 X61.468 Y111.814
G1 F1800 X63.565 Y113.911 E95.23638
G1 X63.635 Y113.981
G0 F3600 X64.368 Y114.148
G1 F1800 X61.229 Y111.009 E95.45785
G0 F3600 X61.171 Y110.386
G1 F1800 X64.99 Y114.205 E95.72731
G0 F3600 X65.56 Y114.209
G1 F1800 X61.169 Y109.818 E96.03711
G0 F3600 X61.169 Y109.252
G1 F1800 X66.125 Y114.209 E96.38682
G0 F3600 X66.691 Y114.209
G1 F1800 X61.169 Y108.687 E96.77643
G0 F3600 X61.169 Y108.121
G1 F1800 X67.257 Y114.209 E97.20597
G0 F3600 X67.822 Y114.209
G1 F1800 X61.169 Y107.555 E97.67541
G0 F3600 X61.169 Y106.99
G1 F1800 X68.388 Y114.209 E98.18475
G0 F3600 X68.954 Y114.209
G1 F1800 X61.169 Y106.424 E98.73402
G0 F3600 X61.169 Y105.858
G1 F1800 X69.519 Y114.209 E99.3232
G0 F3600 X70.085 Y114.209
G1 F1800 X61.169 Y105.293 E99.95227
G0 F3600 X61.169 Y104.727
G1 F1800 X70.651 Y114.209 E100.62128
G0 F3600 X71.216 Y114.209
G1 F1800 X61.169 Y104.161 E101.33018
G0 F3600 X61.169 Y103.596
G1 F1800 X71.782 Y114.209 E102.07899
G0 F3600 X72.348 Y114.209
G1 F1800 X61.169 Y103.03 E102.86772
G0 F3600 X61.169 Y102.464
G1 F1800 X72.914 Y114.209 E103.6964
G0 F3600 X73.479 Y114.209
G1 F1800 X61.169 Y101.899 E104.56493
G0 F3600 X61.169 Y101.333
G1 F1800 X74.045 Y114.209 E105.47341
G0 F3600 X74.611 Y114.209
G1 F1800 X61.169 Y100.767 E106.42181
G0 F3600 X61.169 Y100.201
G1 F1800 X75.176 Y114.209 E107.41012
G0 F3600 X75.742 Y114.209
G1 F1800 X61.169 Y99.636 E108.43832
G0 F3600 X61.169 Y99.07
G1 F1800 X76.308 Y114.209 E109.50646
G0 F3600 X76.873 Y114.209
G1 F1800 X61.169 Y98.504 E110.6145
G0 F3600 X61.169 Y97.939
G1 F1800 X77.439 Y114.209 E111.76243
G0 F3600 X78.005 Y114.209
G1 F1800 X61.169 Y97.373 E112.9503
G0 F3600 X61.169 Y96.807
G1 F1800 X78.57 Y114.209 E114.17807
G0 F3600 X79.136 Y114.209
G1 F1800 X61.169 Y96.242 E115.44574
G0 F3600 X61.169 Y95.676
G1 F1800 X79.702 Y114.209 E116.75334
G0 F3600 X80.267 Y114.209
G1 F1800 X61.169 Y95.11 E118.10085
G0 F3600 X61.169 Y94.545
G1 F1800 X80.833 Y114.209 E119.48825
G0 F3600 X81.399 Y114.209
G1 F1800 X61.169 Y93.979 E120.91558
G0 F3600 X61.169 Y93.413
G1 F1800 X81.964 Y114.209 E122.38282
G0 F3600 X82.53 Y114.209
G1 F1800 X61.169 Y92.848 E123.88995
G0 F3600 X61.169 Y92.282
G1 F1800 X83.096 Y114.209 E125.43702
G0 F3600 X83.662 Y114.209
G1 F1800 X61.169 Y91.716 E127.02402
G0 F3600 X61.169 Y91.151
G1 F1800 X71.33 Y101.311 E127.7409
G0 F3600 X71.56 Y101.541
G1 F1800 X84.227 Y114.209 E128.63466
G0 F3600 X84.793 Y114.209
G1 F1800 X72.126 Y101.541 E129.52842
G0 F3600 X72.691 Y101.541
G1 F1800 X85.359 Y114.209 E130.42222
G0 F3600 X85.924 Y114.209
G1 F1800 X73.257 Y101.541 E131.31598
G0 F3600 X73.823 Y101.541
G1 F1800 X86.49 Y114.209 E132.20974
G0 F3600 X87.056 Y114.209
G1 F1800 X74.389 Y101.541 E133.1035
G0 F3600 X74.954 Y101.541
G1 F1800 X87.621 Y114.209 E133.99726
G0 F3600 X88.187 Y114.209
G1 F1800 X75.52 Y101.541 E134.89102
G0 F3600 X76.086 Y101.541
G1 F1800 X88.753 Y114.209 E135.78478
G0 F3600 X89.318 Y114.209
G1 F1800 X76.651 Y101.541 E136.67854
G0 F3600 X77.217 Y101.541
G1 F1800 X89.884 Y114.209 E137.5723
G0 F3600 X90.45 Y114.209
G1 F1800 X77.783 Y101.541 E138.46606
G0 F3600 X78.348 Y101.541
G1 F1800 X91.015 Y114.209 E139.35982
G0 F3600 X91.581 Y114.209
G1 F1800 X78.914 Y101.541 E140.25358
G0 F3600 X79.48 Y101.541
G1 F1800 X92.147 Y114.209 E141.14735
G0 F3600 X92.713 Y114.209
G1 F1800 X80.045 Y101.541 E142.04114
G0 F3600 X80.611 Y101.541
G1 F1800 X93.278 Y114.209 E142.9349
G0 F3600 X93.844 Y114.209
G1 F1800 X81.177 Y101.541 E143.82866
G0 F3600 X81.742 Y101.541
G1 F1800 X94.41 Y114.209 E144.72246
G0 F3600 X94.975 Y114.209
G1 F1800 X82.308 Y101.541 E145.61622
G0 F3600 X82.874 Y101.541
G1 F1800 X95.541 Y114.209 E146.50998
G0 F3600 X96.107 Y114.209
G1 F1800 X83.44 Y101.541 E147.40374
G0 F3600 X84.005 Y101.541
